icon-svg/yeelight-cube.svg

<svg width="24" height="24" viewBox="0 0 24 24" fill="none" xmlns="http://www.w3.org/2000/svg">
    <path fill-rule="evenodd" clip-rule="evenodd"
        d="M1.16129 1.93548C1.16129 1.93548 2.86473 0 3.48387 0H23.2258C23.6534 0 24 0.346618 24 0.774194V20.5161C24 21.5086 22.0645 23.0323 22.0645 23.0323V2.70968C22.0645 2.2821 21.7179 1.93548 21.2903 1.93548H1.16129ZM0 4.70968C0 3.60511 0.895431 2.70968 2 2.70968H19.2903C20.3949 2.70968 21.2903 3.60511 21.2903 4.70968V22C21.2903 23.1046 20.3949 24 19.2903 24H2C0.895429 24 0 23.1046 0 22V4.70968ZM4.25807 5.6129C4.25807 6.36116 3.65148 6.96774 2.90323 6.96774C2.15497 6.96774 1.54839 6.36116 1.54839 5.6129C1.54839 4.86465 2.15497 4.25807 2.90323 4.25807C3.65148 4.25807 4.25807 4.86465 4.25807 5.6129ZM6.77418 6.96774C7.52244 6.96774 8.12902 6.36116 8.12902 5.61291C8.12902 4.86465 7.52244 4.25807 6.77418 4.25807C6.02592 4.25807 5.41934 4.86465 5.41934 5.61291C5.41934 6.36116 6.02592 6.96774 6.77418 6.96774ZM12 5.61291C12 6.36116 11.3934 6.96774 10.6452 6.96774C9.89689 6.96774 9.29031 6.36116 9.29031 5.61291C9.29031 4.86465 9.89689 4.25807 10.6452 4.25807C11.3934 4.25807 12 4.86465 12 5.61291ZM14.5161 6.96774C15.2644 6.96774 15.871 6.36116 15.871 5.61291C15.871 4.86465 15.2644 4.25807 14.5161 4.25807C13.7679 4.25807 13.1613 4.86465 13.1613 5.61291C13.1613 6.36116 13.7679 6.96774 14.5161 6.96774ZM19.7419 5.61291C19.7419 6.36116 19.1353 6.96774 18.3871 6.96774C17.6388 6.96774 17.0322 6.36116 17.0322 5.61291C17.0322 4.86465 17.6388 4.25807 18.3871 4.25807C19.1353 4.25807 19.7419 4.86465 19.7419 5.61291ZM2.90323 10.8387C3.65148 10.8387 4.25807 10.2321 4.25807 9.48387C4.25807 8.73562 3.65148 8.12903 2.90323 8.12903C2.15497 8.12903 1.54839 8.73562 1.54839 9.48387C1.54839 10.2321 2.15497 10.8387 2.90323 10.8387ZM8.12902 9.48387C8.12902 10.2321 7.52244 10.8387 6.77418 10.8387C6.02592 10.8387 5.41934 10.2321 5.41934 9.48387C5.41934 8.73561 6.02592 8.12903 6.77418 8.12903C7.52244 8.12903 8.12902 8.73561 8.12902 9.48387ZM10.6452 10.8387C11.3934 10.8387 12 10.2321 12 9.48387C12 8.73561 11.3934 8.12903 10.6452 8.12903C9.89689 8.12903 9.29031 8.73561 9.29031 9.48387C9.29031 10.2321 9.89689 10.8387 10.6452 10.8387ZM15.871 9.48387C15.871 10.2321 15.2644 10.8387 14.5161 10.8387C13.7679 10.8387 13.1613 10.2321 13.1613 9.48387C13.1613 8.73561 13.7679 8.12903 14.5161 8.12903C15.2644 8.12903 15.871 8.73561 15.871 9.48387ZM18.3871 10.8387C19.1353 10.8387 19.7419 10.2321 19.7419 9.48387C19.7419 8.73561 19.1353 8.12903 18.3871 8.12903C17.6388 8.12903 17.0322 8.73561 17.0322 9.48387C17.0322 10.2321 17.6388 10.8387 18.3871 10.8387ZM4.25807 13.3548C4.25807 14.1031 3.65148 14.7097 2.90323 14.7097C2.15497 14.7097 1.54839 14.1031 1.54839 13.3548C1.54839 12.6066 2.15497 12 2.90323 12C3.65148 12 4.25807 12.6066 4.25807 13.3548ZM6.77418 14.7097C7.52244 14.7097 8.12902 14.1031 8.12902 13.3548C8.12902 12.6066 7.52244 12 6.77418 12C6.02592 12 5.41934 12.6066 5.41934 13.3548C5.41934 14.1031 6.02592 14.7097 6.77418 14.7097ZM12 13.3548C12 14.1031 11.3934 14.7097 10.6452 14.7097C9.89689 14.7097 9.29031 14.1031 9.29031 13.3548C9.29031 12.6066 9.89689 12 10.6452 12C11.3934 12 12 12.6066 12 13.3548ZM14.5161 14.7097C15.2644 14.7097 15.871 14.1031 15.871 13.3548C15.871 12.6066 15.2644 12 14.5161 12C13.7679 12 13.1613 12.6066 13.1613 13.3548C13.1613 14.1031 13.7679 14.7097 14.5161 14.7097ZM19.7419 13.3548C19.7419 14.1031 19.1353 14.7097 18.3871 14.7097C17.6388 14.7097 17.0322 14.1031 17.0322 13.3548C17.0322 12.6066 17.6388 12 18.3871 12C19.1353 12 19.7419 12.6066 19.7419 13.3548ZM2.90323 18.5807C3.65148 18.5807 4.25807 17.9741 4.25807 17.2258C4.25807 16.4776 3.65148 15.871 2.90323 15.871C2.15497 15.871 1.54839 16.4776 1.54839 17.2258C1.54839 17.9741 2.15497 18.5807 2.90323 18.5807ZM8.12902 17.2258C8.12902 17.9741 7.52244 18.5806 6.77418 18.5806C6.02592 18.5806 5.41934 17.9741 5.41934 17.2258C5.41934 16.4776 6.02592 15.871 6.77418 15.871C7.52244 15.871 8.12902 16.4776 8.12902 17.2258ZM10.6452 18.5806C11.3934 18.5806 12 17.9741 12 17.2258C12 16.4776 11.3934 15.871 10.6452 15.871C9.89689 15.871 9.29031 16.4776 9.29031 17.2258C9.29031 17.9741 9.89689 18.5806 10.6452 18.5806ZM15.871 17.2258C15.871 17.9741 15.2644 18.5806 14.5161 18.5806C13.7679 18.5806 13.1613 17.9741 13.1613 17.2258C13.1613 16.4776 13.7679 15.871 14.5161 15.871C15.2644 15.871 15.871 16.4776 15.871 17.2258ZM18.3871 18.5806C19.1353 18.5806 19.7419 17.9741 19.7419 17.2258C19.7419 16.4776 19.1353 15.871 18.3871 15.871C17.6388 15.871 17.0322 16.4776 17.0322 17.2258C17.0322 17.9741 17.6388 18.5806 18.3871 18.5806ZM4.25807 21.0968C4.25807 21.845 3.65148 22.4516 2.90323 22.4516C2.15497 22.4516 1.54839 21.845 1.54839 21.0968C1.54839 20.3485 2.15497 19.7419 2.90323 19.7419C3.65148 19.7419 4.25807 20.3485 4.25807 21.0968ZM6.77418 22.4516C7.52244 22.4516 8.12902 21.845 8.12902 21.0968C8.12902 20.3485 7.52244 19.7419 6.77418 19.7419C6.02592 19.7419 5.41934 20.3485 5.41934 21.0968C5.41934 21.845 6.02592 22.4516 6.77418 22.4516ZM12 21.0968C12 21.845 11.3934 22.4516 10.6452 22.4516C9.89689 22.4516 9.29031 21.845 9.29031 21.0968C9.29031 20.3485 9.89689 19.7419 10.6452 19.7419C11.3934 19.7419 12 20.3485 12 21.0968ZM14.5161 22.4516C15.2644 22.4516 15.871 21.845 15.871 21.0968C15.871 20.3485 15.2644 19.7419 14.5161 19.7419C13.7679 19.7419 13.1613 20.3485 13.1613 21.0968C13.1613 21.845 13.7679 22.4516 14.5161 22.4516ZM19.7419 21.0968C19.7419 21.845 19.1353 22.4516 18.3871 22.4516C17.6388 22.4516 17.0322 21.845 17.0322 21.0968C17.0322 20.3485 17.6388 19.7419 18.3871 19.7419C19.1353 19.7419 19.7419 20.3485 19.7419 21.0968Z"
        fill="#44739E" />
</svg>

<svg xmlns="http://www.w3.org/2000/svg" fill="none" viewBox="0 0 24 24"><path fill="#44739e" fill-rule="evenodd" d="M1.1613 1.9355S2.8647 0 3.4839 0h19.7419A.774.774 0 0 1 24 .7742V20.516c0 .9925-1.9355 2.5162-1.9355 2.5162V2.7097a.774.774 0 0 0-.7742-.7742zM0 4.7097c0-1.1046.8954-2 2-2h17.2903c1.1046 0 2 .8954 2 2V22c0 1.1046-.8954 2-2 2H2c-1.1046 0-2-.8954-2-2zm4.258.9032c0 .7483-.6065 1.3548-1.3548 1.3548S1.5484 6.3612 1.5484 5.613s.6066-1.3548 1.3548-1.3548 1.3549.6066 1.3549 1.3548m2.5162 1.3548c.7482 0 1.3548-.6065 1.3548-1.3548s-.6066-1.3548-1.3548-1.3548-1.3549.6066-1.3549 1.3548.6066 1.3548 1.3549 1.3548M12 5.613c0 .7483-.6066 1.3548-1.3548 1.3548S9.2903 6.3612 9.2903 5.613s.6066-1.3548 1.3549-1.3548S12 4.8647 12 5.6129m2.5161 1.3548c.7483 0 1.3549-.6065 1.3549-1.3548s-.6066-1.3548-1.3549-1.3548-1.3548.6066-1.3548 1.3548.6066 1.3548 1.3548 1.3548m5.2258-1.3548c0 .7483-.6066 1.3548-1.3548 1.3548s-1.3549-.6065-1.3549-1.3548.6066-1.3548 1.3549-1.3548 1.3548.6066 1.3548 1.3548M2.9032 10.8387c.7483 0 1.3549-.6066 1.3549-1.3548S3.6515 8.129 2.9032 8.129s-1.3548.6066-1.3548 1.3549.6066 1.3548 1.3548 1.3548M8.129 9.4839c0 .7482-.6066 1.3548-1.3548 1.3548s-1.3549-.6066-1.3549-1.3548S6.026 8.129 6.7742 8.129s1.3548.6066 1.3548 1.355m2.5162 1.3548c.7482 0 1.3548-.6066 1.3548-1.3548s-.6066-1.3549-1.3548-1.3549-1.3549.6066-1.3549 1.3549.6066 1.3548 1.3549 1.3548M15.871 9.484c0 .7482-.6066 1.3548-1.3549 1.3548s-1.3548-.6066-1.3548-1.3548.6066-1.3549 1.3548-1.3549 1.3549.6066 1.3549 1.3549m2.5161 1.3548c.7482 0 1.3548-.6066 1.3548-1.3548s-.6066-1.3549-1.3548-1.3549-1.3549.6066-1.3549 1.3549.6066 1.3548 1.3549 1.3548m-14.129 2.5161c0 .7483-.6066 1.3549-1.3549 1.3549s-1.3548-.6066-1.3548-1.3549S2.155 12 2.9032 12s1.3549.6066 1.3549 1.3548m2.516 1.3549c.7483 0 1.355-.6066 1.355-1.3549S7.5223 12 6.774 12s-1.3548.6066-1.3548 1.3548.6066 1.3549 1.3549 1.3549M12 13.3548c0 .7483-.6066 1.3549-1.3548 1.3549s-1.3549-.6066-1.3549-1.3549S9.897 12 10.6452 12 12 12.6066 12 13.3548m2.5161 1.3549c.7483 0 1.3549-.6066 1.3549-1.3549S15.2644 12 14.5161 12s-1.3548.6066-1.3548 1.3548.6066 1.3549 1.3548 1.3549m5.2258-1.3549c0 .7483-.6066 1.3549-1.3548 1.3549s-1.3549-.6066-1.3549-1.3549S17.6388 12 18.3871 12s1.3548.6066 1.3548 1.3548M2.9032 18.5807c.7483 0 1.3549-.6066 1.3549-1.3549s-.6066-1.3548-1.3549-1.3548-1.3548.6066-1.3548 1.3548.6066 1.3549 1.3548 1.3549m5.2258-1.3549c0 .7483-.6066 1.3548-1.3548 1.3548s-1.3549-.6065-1.3549-1.3548.6066-1.3548 1.3549-1.3548 1.3548.6066 1.3548 1.3548m2.5162 1.3548c.7482 0 1.3548-.6065 1.3548-1.3548s-.6066-1.3548-1.3548-1.3548-1.3549.6066-1.3549 1.3548.6066 1.3548 1.3549 1.3548m5.2258-1.3548c0 .7483-.6066 1.3548-1.3549 1.3548s-1.3548-.6065-1.3548-1.3548.6066-1.3548 1.3548-1.3548 1.3549.6066 1.3549 1.3548m2.5161 1.3548c.7482 0 1.3548-.6065 1.3548-1.3548s-.6066-1.3548-1.3548-1.3548-1.3549.6066-1.3549 1.3548.6066 1.3548 1.3549 1.3548m-14.129 2.5162c0 .7482-.6066 1.3548-1.3549 1.3548s-1.3548-.6066-1.3548-1.3548.6066-1.3549 1.3548-1.3549 1.3549.6066 1.3549 1.3549m2.516 1.3548c.7483 0 1.355-.6066 1.355-1.3548s-.6067-1.3549-1.355-1.3549-1.3548.6066-1.3548 1.3549.6066 1.3548 1.3549 1.3548M12 21.0968c0 .7482-.6066 1.3548-1.3548 1.3548s-1.3549-.6066-1.3549-1.3548.6066-1.3549 1.3549-1.3549S12 20.3485 12 21.0968m2.5161 1.3548c.7483 0 1.3549-.6066 1.3549-1.3548s-.6066-1.3549-1.3549-1.3549-1.3548.6066-1.3548 1.3549.6066 1.3548 1.3548 1.3548m5.2258-1.3548c0 .7482-.6066 1.3548-1.3548 1.3548s-1.3549-.6066-1.3549-1.3548.6066-1.3549 1.3549-1.3549 1.3548.6066 1.3548 1.3549" clip-rule="evenodd"/></svg>
